!!!COM: Palestrina, Giovanni Perluigi da
!!!OPR: Missa Beatus Laurentius
!!!OTL: Agnus I
**kern	**kern	**kern	**kern	**kern
*Ibass	*Itenor	*Itenor	*Icalto	*Icant
!Bassus	!Tenor 2	!Tenor 1	!Altus	!Cantus
*clefF4	*clefGv2	*clefGv2	*clefG2	*clefG2
*k[]	*k[]	*k[]	*k[]	*k[]
*G:mix	*G:mix	*G:mix	*G:mix	*G:mix
*M4/2	*M4/2	*M4/2	*M4/2	*M4/2
=1	=1	=1	=1	=1
0r	0r	0r	0r	0dd
=2	=2	=2	=2	=2
0r	0r	0r	1r	1dd
.	.	.	[1g	1gg
=3	=3	=3	=3	=3
0r	0r	0r	1g]	1ee
.	.	.	1g	1dd
=4	=4	=4	=4	=4
0r	0r	1r	1cc	2ee
.	.	.	.	1gg
.	.	[1d	2.a	.
.	.	.	.	4ff#
.	.	.	4g	4ee
=5	=5	=5	=5	=5
0r	0r	1d]	2a	2ff#
.	.	.	2b	1gg
.	.	1d	1a	.
.	.	.	.	2ff
=6	=6	=6	=6	=6
0G	0r	1g	1b	2ee
.	.	.	.	1dd
.	.	1e	[1g	.
.	.	.	.	[2cc
=7	=7	=7	=7	=7
1G	0r	1d	2g]	2cc]
.	.	.	2g	2b
1c	.	[1e	2a	2cc
.	.	.	[2g	2g
=8	=8	=8	=8	=8
1A	0r	2e]	2g]	2a
.	.	4d	2f#	1cc
.	.	4c	.	.
1G	.	2e	1g	.
.	.	[2d	.	2b
=9	=9	=9	=9	=9
1A	1r	4d]	2e	1cc
.	.	4c	.	.
.	.	1c	2f#	.
1G	[1d	.	[1g	1r
.	.	4B	.	.
.	.	4A	.	.
=10	=10	=10	=10	=10
2G	1d]	2B	2g]	1.dd
4F	.	4A	2a	.
4E	.	4G	.	.
4D	1d	2A	1f	.
4C	.	.	.	.
2D	.	2B	.	2dd
=11	=11	=11	=11	=11
0C	1g	4c	2e	2.ee
.	.	4d	.	.
.	.	4e	4c	.
.	.	4f	4d	4dd
.	1e	1g	4e	4cc
.	.	.	4f	4b
.	.	.	[2g	2cc
=12	=12	=12	=12	=12
0r	1d	2r	2g]	1dd
.	.	1a	2f#	.
.	1e	.	1g	2b
.	.	[2g	.	2cc
=13	=13	=13	=13	=13
1r	1d	2g]	1a	1dd
.	.	2f#	.	.
2r	1e	2.g	2g	2b
2c	.	.	2cc	2ee
.	.	4f	.	.
=14	=14	=14	=14	=14
1c	2c	4e	1cc	1ee
.	.	4d	.	.
.	2g	2c	.	.
[1G	1g	2r	1b	[1dd
.	.	2g	.	.
=15	=15	=15	=15	=15
1G]	2d	1g	1b	1dd]
.	2g	.	.	.
1r	2f	2d	2a	2r
.	2e	2g	2g	2b
=16	=16	=16	=16	=16
0r	2d	2f	4a	2dd
.	.	.	4b	.
.	2c	2e	1cc	2ee
.	1f	1d	.	1ff
.	.	.	2b	.
=17	=17	=17	=17	=17
2r	1g	2c	1cc	0ee
2c	.	2e	.	.
1c	2r	1e	2r	.
.	2g	.	2cc	.
=18	=18	=18	=18	=18
2G	1g	2d	2b	0r
2c	.	2e	2.g	.
2B	2G	2d	.	.
.	.	.	8f	.
.	.	.	8e	.
2A	2c	2c	2f	.
=19	=19	=19	=19	=19
2.G	2c	2d	1g	0r
.	2B	1e	.	.
8F	.	.	.	.
8E	.	.	.	.
1F	1A	.	1a	.
.	.	2d	.	.
=20	=20	=20	=20	=20
[0C	0c	[0e	2g	1r
.	.	.	2cc	.
.	.	.	1cc	2r
.	.	.	.	2gg
=21	=21	=21	=21	=21
1C]	2r	1e]	2g	1gg
.	2g	.	2.cc	.
1r	1g	1r	.	2dd
.	.	.	4b	.
.	.	.	4b	2gg
.	.	.	8a	.
.	.	.	8g	.
=22	=22	=22	=22	=22
0r	2d	0r	2a	2ff
.	2g	.	2b	2ee
.	2f	.	2a	4dd
.	.	.	.	4cc
.	2e	.	[2g	4cc
.	.	.	.	8b
.	.	.	.	8a
=23	=23	=23	=23	=23
1r	2.d	2r	2g]	2b
.	.	1d	2f#	2.a
.	4c	.	.	.
2r	2B	.	1g	.
.	.	.	.	4g
2c	2c	[2e	.	[2g
=24	=24	=24	=24	=24
1c	1A	2e]	1r	2g]
.	.	2c	.	2f#
1C	2G	1e	2r	1g
.	[2c	.	2g	.
=25	=25	=25	=25	=25
1G	4c]	1d	1g	0r
.	4B	.	.	.
.	2B	.	.	.
2F	2A	1r	2c	.
2E	2G	.	2g	.
=26	=26	=26	=26	=26
2D	4A	2r	2f	1r
.	4B	.	.	.
2C	1c	2g	2e	.
[1G	.	1g	1d	2r
.	2B	.	.	2dd
=27	=27	=27	=27	=27
1G]	2r	2d	1g	1dd
.	2d	1g	.	.
1r	1d	.	1r	2a
.	.	2f	.	2dd
=28	=28	=28	=28	=28
0r	2A	2e	0r	2cc
.	2e	1g	.	2b
.	2c	.	.	1a
.	2d	2f#	.	.
=29	=29	=29	=29	=29
1.c	1e	2g	2r	1g
.	.	1e	1g	.
.	1c	.	.	1r
2A	.	2f	2a	.
=30	=30	=30	=30	=30
2c	0r	2e	2.g	1r
2B	.	2d	.	.
.	.	.	4f	.
1G	.	2.g	2e	2r
.	.	.	[2d	[2g
.	.	4f	.	.
=31	=31	=31	=31	=31
1A	1r	2e	4d]	2g]
.	.	.	4c	.
.	.	4d	1c	2f#
.	.	4c	.	.
1G	2r	1d	.	1g
.	[2g	.	2B	.
=32	=32	=32	=32	=32
2.C	2g]	2.g	0c	2e
.	2e	.	.	1cc
4D	.	4f	.	.
2E	2g	4e	.	.
.	.	4d	.	.
4F	2f	[2c	.	2a
4G	.	.	.	.
=33	=33	=33	=33	=33
2A	2e	2c]	2r	2cc
2B	2d	2G	1g	2b
2c	1e	1r	.	1g
2c	.	.	2e	.
=34	=34	=34	=34	=34
1F	2d	1r	2f	1a
.	1c	.	2e	.
1G	.	2r	1d	2g
.	2B	[2g	.	2dd
=35	=35	=35	=35	=35
2r	1c	2g]	1c	2ee
1c	.	2e	.	2gg
.	1r	2g	2.cc	2ee
2A	.	2f	.	[2ff
.	.	.	4cc	.
=36	=36	=36	=36	=36
2B-	0r	1d	2f	4ff]
.	.	.	.	4ee
2B-	.	.	2g	1dd
1A	.	1e	2.a	.
.	.	.	.	2cc#
.	.	.	4g	.
=37	=37	=37	=37	=37
1D	2r	1d	1f#	1dd
.	1d	.	.	.
[1G	.	2r	1g	1b
.	2B	2d	.	.
=38	=38	=38	=38	=38
2G]	2d	2B	2r	2.g
2E	2c	2e	1g	.
.	.	.	.	4a
2G	4B	2d	.	2b
.	4G	.	.	.
2C	4g	[2c	2e	2cc
.	4f	.	.	.
=39	=39	=39	=39	=39
2E	4e	2c]	2g	2g
.	4d	.	.	.
2F	1c	2A	2f	2a
1G	.	2r	1d	1g
.	2B	2d	.	.
=40	=40	=40	=40	=40
1C	1c	1g	1e	2r
.	.	.	.	1cc
[1F	2r	2.a	2c	.
.	[2c	.	[2f	2a
.	.	4a	.	.
=41	=41	=41	=41	=41
2F]	2c]	1a	2f]	2.cc
2F	2A	.	2f	.
.	.	.	.	4dd
2C	2c	[1g	2e	4ee
.	.	.	.	4cc
[2G	2B	.	[2d	2dd
=42	=42	=42	=42	=42
4G]	1G	1g]	2d]	2b
4F	.	.	.	.
2E	.	.	1g	2cc
1D	1A	2r	.	1dd
.	.	[2d	2f#	.
=43	=43	=43	=43	=43
1G	1G	2d]	[0g	2r
.	.	2B	.	1dd
[1G	2r	1d	.	.
.	2d	.	.	2b
=44	=44	=44	=44	=44
2G]	2B	1.G	0g]	2dd
2E	2e	.	.	1cc
2G	1d	.	.	.
2G	.	4g	.	2b
.	.	4f	.	.
=45	=45	=45	=45	=45
0C	2.c	4e	[0g	0cc
.	.	4d	.	.
.	.	4c	.	.
.	4d	4B	.	.
.	1e	1c	.	.
=46	=46	=46	=46	=46
0G	0d	0B	0g]	0dd
==	==	==	==	==
*-	*-	*-	*-	*-
!!!CDT: 1525/^1526/-1594/2/2
!!!OCY: Italia
!!!AGN: Mass (Paraphrase)
!!!AST: renaissance, vocal
!!!ASW: Antiphon
!!!PWK: Masses, Book 8
!!!RNB: Cadence finals: C
!!!YOR: Le Opere Complete, v. 24, p. 194
!!!YOO: Rome, Italy: Fratelli Scalera
!!!END: 1992//
!!!EED: John Miller
!!!YEC: Copyright 2000, John Miller
!!!YEN: United States of America
!!!YEM: Rights to all derivative electronic formats reserved.
!!!YEM: Refer to licensing agreement for further details.
!!!YEM: This file must be accompanied by the licensing agreement.
!!!YEM: A copy of the licensing agreement may be found at http://www.music-cog.ohio-state.edu/HumdrumDatabases/Palestrina/license.txt
!!!EMD: converted to Humdrum by Bret Aarden
